X: 62
T: Ala Keçim Çift Doğurdu
C: Günay Şimşek
O: Turkey
F: http://compmusic.upf.edu/node/140
N: segah--turku--sofyan--ana_beni--
N: makam= segah
N: form= turku
N: usul= sofyan = 4/4
M: 4/4
L: 1/16
K: C _1/4B _1/4e ^f 
Q: 1/4=72
%%MIDI tuningsystem comma53
z2dd dd3 d2cd c2B2  | z2dd d2d2 ddcd c2B2  | 
w:  A la  ke çim  çift  do ğur du    |  Bol_ et tik  sü tü  yo *  *  ğur du    | 
z2g^3/4f ge2d de2d ecd2  | d2cd c2Bd cc2B c2B2  | 
w:  Gön lü me  hül *  ya lar  *  dol *  du    |  Ah  a na  be ni  *  e ver *  se ne    | 
e2de c2Bd cc2B c2B2  | z2dd dd3 d2cd c2B2  | 
w:  A na  *  be ni  *  e ver *  se ne    |  A la  ke çim  çift  do ğur du    | 
z2dd d2d2 ddcd c2B2  | z2g^3/4f ge2d de2d ecd2  | 
w:  Bol_ et tik  sü tü  yo *  *  ğur du    |  Gön lü me  hül *  ya lar  *  dol *  du    | 
d2cd c2Bd cc2B c2B2  | e2de c2Bd cc2B c2B2  | 
w:  Ah  a na  be ni  *  e ver *  se ne    |  A na  *  be ni  *  e ver *  se ne    | 
|


